icon/viber-icon.svg

<svg width="20" height="20" viewBox="0 0 20 20" fill="none" xmlns="http://www.w3.org/2000/svg">
<path d="M18.16 4.84C15.28 0.4 9.40001 -0.92 4.84001 1.84C0.40001 4.6 -1.03999 10.6 1.84001 15.04L2.08001 15.4L1.12001 19L4.72001 18.04L5.08001 18.28C6.64001 19.12 8.32001 19.6 10 19.6C11.8 19.6 13.6 19.12 15.16 18.16C19.6 15.28 20.92 9.4 18.16 4.84ZM15.64 14.08C15.16 14.8 14.56 15.28 13.72 15.4C13.24 15.4 12.64 15.64 10.24 14.68C8.20001 13.72 6.52001 12.16 5.32001 10.36C4.60001 9.52 4.24001 8.44 4.12001 7.36C4.12001 6.4 4.48001 5.56 5.08001 4.96C5.32001 4.72 5.56001 4.6 5.80001 4.6H6.40001C6.64001 4.6 6.88001 4.6 7.00001 5.08C7.24001 5.68 7.84001 7.12 7.84001 7.24C7.96001 7.36 7.96001 7.6 7.84001 7.72C7.96001 7.96 7.84001 8.2 7.72001 8.32C7.60001 8.44 7.48001 8.68 7.36001 8.8C7.12001 8.92 7.00001 9.16 7.12001 9.4C7.60001 10.12 8.20001 10.84 8.80001 11.44C9.52001 12.04 10.24 12.52 11.08 12.88C11.32 13 11.56 13 11.68 12.76C11.8 12.52 12.4 11.92 12.64 11.68C12.88 11.44 13 11.44 13.24 11.56L15.16 12.52C15.4 12.64 15.64 12.76 15.76 12.88C15.88 13.24 15.88 13.72 15.64 14.08Z" fill="#2F80ED"/>
</svg>

<svg width="20" height="20" fill="none" xmlns="http://www.w3.org/2000/svg"><path d="M18.16 4.84C15.28.4 9.4-.92 4.84 1.84c-4.44 2.76-5.88 8.76-3 13.2l.24.36-.96 3.6 3.6-.96.36.24c1.56.84 3.24 1.32 4.92 1.32 1.8 0 3.6-.48 5.16-1.44 4.44-2.88 5.76-8.76 3-13.32Zm-2.52 9.24c-.48.72-1.08 1.2-1.92 1.32-.48 0-1.08.24-3.48-.72-2.04-.96-3.72-2.52-4.92-4.32-.72-.84-1.08-1.92-1.2-3 0-.96.36-1.8.96-2.4.24-.24.48-.36.72-.36h.6c.24 0 .48 0 .6.48.24.6.84 2.04.84 2.16.12.12.12.36 0 .48.12.24 0 .48-.12.6s-.24.36-.36.48c-.24.12-.36.36-.24.6.48.72 1.08 1.44 1.68 2.04.72.6 1.44 1.08 2.28 1.44.24.12.48.12.6-.12s.72-.84.96-1.08c.24-.24.36-.24.6-.12l1.92.96c.24.12.48.24.6.36.12.36.12.84-.12 1.2Z" fill="#2F80ED"/></svg>
